X:7769
T:unknown
O:England
M:6/8
L:1/8
S:Patsy Reid
K:Em
E2e B2e|gfe B2e|gfe gbe|fdB AFD|E2e c2e|gfe B2e|gfe fed|e3 e2:|
f|gfe B2e|gfe bge|gfe b2e|fdB AFD|gfe B2e|gfe bge|gfe fed|e3 e2:|


